X: 13772
T: Fort Charlotte
R: march
M: 
K: Dmajor
M:2/4
f/e/|dA A>f|eB e/d/e/f/|gB e>d|cA Af/e/|
dA A>f|e/d/e/f/ g/B/e/d/|c/A/c/e/ a/g/f/e/|d2 d:|:f/g/|
aA Bg|fA ee/f/|gG B/c/d/f/|e/d/c/B/ c/A/f/g/|
aA Bg|fA ee/f/|g/B/e/d/ c/A/a/c/|d2d:|

